packages/foundations/assets/icons/functional/images/maps/parking_20.svg

<svg width="20" height="20" viewBox="0 0 20 20" fill="none" xmlns="http://www.w3.org/2000/svg">
<g clip-path="url(#clip0_186_100)">
<path fill-rule="evenodd" clip-rule="evenodd" d="M16 2C17.1046 2 18 2.89543 18 4V16C18 17.1046 17.1046 18 16 18H4C2.89543 18 2 17.1046 2 16V4C2 2.89543 2.89543 2 4 2H16ZM16 4H4V16H16V4ZM10.3568 6.317C11.2218 6.317 11.8828 6.51581 12.3397 6.91345C12.7967 7.31108 13.0251 7.8901 13.0251 8.65049C13.0251 9.43181 12.7879 10.0265 12.3136 10.4346C11.8823 10.8056 11.2695 11.008 10.475 11.0417C9.88067 11.0444 9.41919 11.021 9.09057 10.9714L9.09062 12.8149C9.09062 13.2859 8.7088 13.6677 8.23781 13.6677C7.80304 13.6677 7.38499 13.3251 7.38499 12.8149V7.067C7.38499 6.6873 7.68492 6.28621 8.13499 6.317C8.87555 6.31481 9.61615 6.31481 10.3568 6.317ZM10.2208 7.56221H9.09057V9.82456C9.36664 9.86502 9.69803 9.88525 10.0847 9.88525C10.5382 9.88525 10.8643 9.79107 11.0631 9.60272C11.2619 9.41437 11.3613 9.11091 11.3613 8.69234C11.3613 8.34553 11.2968 8.02294 11.0945 7.82382C10.8771 7.62358 10.5676 7.56221 10.2208 7.56221Z" fill="#1A1C1F"/>
</g>
<defs>
<clipPath id="clip0_186_100">
<rect width="20" height="20" fill="white"/>
</clipPath>
</defs>
</svg>

<svg xmlns="http://www.w3.org/2000/svg" width="20" height="20" fill="none"><g clip-path="url(#a)"><path fill="#1A1C1F" fill-rule="evenodd" d="M16 2a2 2 0 0 1 2 2v12a2 2 0 0 1-2 2H4a2 2 0 0 1-2-2V4a2 2 0 0 1 2-2zm0 2H4v12h12zm-5.643 2.317q1.297 0 1.983.596.685.597.685 1.737 0 1.173-.711 1.785-.647.556-1.839.607-.891.003-1.384-.07v1.843a.853.853 0 0 1-1.706 0V7.067c0-.38.3-.78.75-.75q1.11-.003 2.222 0m-.136 1.245H9.09v2.263q.414.06.994.06.68 0 .978-.282.298-.283.298-.91c0-.347-.064-.67-.267-.87-.217-.2-.526-.26-.873-.26" clip-rule="evenodd"/></g><defs><clipPath id="a"><path fill="#fff" d="M0 0h20v20H0z"/></clipPath></defs></svg>
